src/lib/packages/icons/src/assets/line/exchange-vertical-square.svg

<svg width="24" height="24" viewBox="0 0 24 24" fill="none" xmlns="http://www.w3.org/2000/svg">
<path d="M17.625 2.25H6.375C3.715 2.25 2.25 3.715 2.25 6.375V17.625C2.25 20.285 3.715 21.75 6.375 21.75H17.625C20.285 21.75 21.75 20.285 21.75 17.625V6.375C21.75 3.715 20.285 2.25 17.625 2.25ZM20.25 17.625C20.25 19.465 19.465 20.25 17.625 20.25H6.375C4.535 20.25 3.75 19.465 3.75 17.625V6.375C3.75 4.535 4.535 3.75 6.375 3.75H17.625C19.465 3.75 20.25 4.535 20.25 6.375V17.625ZM16.5801 9.6709C16.8731 9.9639 16.8731 10.4389 16.5801 10.7319C16.2871 11.0249 15.812 11.0249 15.519 10.7319L14.0991 9.31299V14.7019C14.0991 15.1159 13.7631 15.4519 13.3491 15.4519C12.9351 15.4519 12.5991 15.1159 12.5991 14.7019V7.50195C12.5991 7.19895 12.782 6.92508 13.062 6.80908C13.342 6.69308 13.6649 6.75692 13.8789 6.97192L16.5801 9.6709ZM11.3999 9.302V16.502C11.3999 16.805 11.217 17.0791 10.937 17.1951C10.844 17.2341 10.7469 17.252 10.6499 17.252C10.4549 17.252 10.2631 17.176 10.1201 17.032L7.41992 14.332C7.12692 14.039 7.12692 13.564 7.41992 13.271C7.71292 12.978 8.18796 12.978 8.48096 13.271L9.90088 14.6909V9.30103C9.90088 8.88703 10.2369 8.55103 10.6509 8.55103C11.0649 8.55103 11.3999 8.888 11.3999 9.302Z" fill="currentColor"/>
</svg>

<svg xmlns="http://www.w3.org/2000/svg" width="24" height="24" fill="none"><path fill="currentColor" d="M17.625 2.25H6.375c-2.66 0-4.125 1.465-4.125 4.125v11.25c0 2.66 1.465 4.125 4.125 4.125h11.25c2.66 0 4.125-1.465 4.125-4.125V6.375c0-2.66-1.465-4.125-4.125-4.125Zm2.625 15.375c0 1.84-.785 2.625-2.625 2.625H6.375c-1.84 0-2.625-.785-2.625-2.625V6.375c0-1.84.785-2.625 2.625-2.625h11.25c1.84 0 2.625.785 2.625 2.625v11.25Zm-3.67-7.954a.75.75 0 1 1-1.061 1.06l-1.42-1.418v5.389a.75.75 0 0 1-1.5 0v-7.2a.75.75 0 0 1 1.28-.53L16.58 9.67Zm-5.18-.369v7.2a.75.75 0 0 1-1.28.53l-2.7-2.7a.75.75 0 1 1 1.061-1.061l1.42 1.42V9.3a.75.75 0 1 1 1.499.001Z"/></svg>
